X:1
T:Pas de sept : Manceau
Z:Roger Ngaret (94-95)
R:scottish
C:Manceau
S:
A:Bretagne
Q:1/4=180
M:2/4
L:1/16
K:G
"G"B2B2 B2B2 | B2B2 B2B2 | "D"A2A2 A2c2 | "G"B4 G4 |
d2d2 d2d2 | d2d2 d2d2 | "D"c2c2 c2e2 |1 "G"d4 B4 :|2
"G"d4 B2d2 | g4 f4 | "Am"A6c2 | e4 d4 | "G"G8 |
B2B2 B2B2 | "D"A6c2 | "G"d2c2 B2A2 | B2G2 B2d2 |
g4 e4 | "Am"F6A2 | e4 c4 | "G"G8 | B2B2 B2B2 |
"D"A6B2 | "G"d2c2 | B2A2 G8 |]
